X:145
T:A Waltz
O:No 145 Page 69  William Clarke of Feltwell
N:Time sig altered to 3/8 to account for 3 quavers per bar.
M:3/8
L:1/8
K:F
:d2c| (cA).f| f2 e| dBb| b>a|gec'| c'2 b| a/b/c'/b/a/g/|f2c| cAf| f2 e| dBg| g2 f| e/f/g/f/e/d/|(c/e/)(d/f/)(e/g/)| (f/e/)(f/e/)(f/e/)| f2:||: c'| bge| cBG|Acf| afc'| bge|cBG| Acf| afc'| cAf| f2 e| dBg| g2 f| (e/f/g/f/e/d/)|(c/e/)(d/f/)(e/g/)|(f/e/)(f/e/)(f/e/)|f2||

